X:1
T:6 Gesänge, Op.6
T:Auf dem Meere
T:6 Gesänge, Op.6 
T:3. Auf dem Meere On the Ocean
T:Robert Franz
T:Heinrich Heine (trans. Diana Udevak Ashton) 
T:OpenScore (CC0)
T:OpenScore (CC0)
C:Robert Franz
Z:Heinrich Heine
Z:OpenScore (CC0)
%%score 1 { ( 2 4 ) | ( 3 5 6 ) }
L:1/8
Q:1/4=116
M:2/4
K:Bb
V:1 treble nm="Singstimme\nVoice"
V:2 treble nm="Pianoforte"
V:4 treble 
V:3 bass 
V:5 bass 
V:6 bass 
V:1
"^Mit schwankender Bewegung, leidenschaftlich""^Agitato, ma non troppo" z4 | z4 | %2
w: ||
w: ||
!p!!<(! G G A!<)! A |!>(! B B A!>)! A | d G A B | =c d (G/_A/) G | e d c =B | (d/c/) (=B/c/) d G | %8
w: An die blau- e|Him- mels- de- cke,|wo die schö- nen|Ster- ne blin- * ken,|möcht' ich pres- sen|mei- * ne * Lip- pen,|
w: On the fir- ma-|ment of Hea- ven,|where the stars so|bright- ly spar- * kle,|fain I would my|lips * be * press- ing,|
"^cresc." _B G d ^c | f!<(! d (A!<)!=e) | d2 z2 | z4 | G G A A | %13
w: pres- sen wild, und|stür- misch wei- *|nen.||Je- ne Ster- ne|
w: press- ing wild- ly,|wild- ly weep- *|ing.||Orbs of Hea- ven,|
 B[Q:1/4=100]"^poco riten." B A[Q:1/4=95]"^T" A |[Q:1/4=90]"^Più lento" z2!p! d3/2 _e/ | %15
w: sind die Au- gen|mei- ner|
w: eyes so beau- teous|of my|
"^Innig"!>(! (f2!>)! e2) | d2!pp!"^m. v." c3/2 B/ | (A2 c2) |[Q:1/4=80]"^a tempo" B2 z2 | z4 | %20
w: Lieb- *|sten, mei- ner|Lieb- *|sten,||
w: lo- ved|one, of my|lo- ved|one,||
!p! B B c c |"^poco riten."[Q:1/4=95]"^T" d d A2 | %22
w: tau- send- fäl- tig|schim- mern sie,|
w: shine their rays a|thou- sand- fold,|
[Q:1/4=71]"^Più lento""^Innig" z (B/c/)[Q:1/4=90]"^T" d3/2 _e/ |!>(! (f2 e2) | %24
w: und * grüs- sen|freund- *|
w: and * greet me|kind- *|
 d2!>)!!pp!"^m.v." c3/2 B/ | (A2 c2) |[Q:1/4=105]"^a tempo" B2[Q:1/4=110]"^T" z2 | %27
w: lich, grüs- sen|freund- *|lich.|
w: ly, greet me|kind- *|ly.|
[Q:1/4=116]"^T" z4 | z4 | z4 |!p!!<(! G G A!<)! A |!>(! B B A!>)! A | d G A B | =c d (G/_A/) G | %34
w: |||Nach der blau- en|Him- mels- de- cke,|nach den Au- gen|der Ge- lieb- * ten,|
w: |||Towards the deep blue|fir- ma- ment and|towards the eyes of|my be- lov- * ed,|
!<(! e e d d!<)! | g!>(! (f/e/) d!>)! c |!p! (B2 A) G |!>(! d2!>)! c!p! z | (B2 A) G | %39
w: heb ich an- dachts-|voll die * Ar- me,|und _ ich|be- te|und _ ich|
w: pi- ous- ly my|arms up- * rais- ing,|hear _ my|pray- er|and sup- pli-|
!>(! d2!>)! c z | z4 | z4 | z4 || %43
w: fle- he:||||
w: ca- tion!||||
[M:3/4][Q:1/4=114]"^Allegro moderato""^Sehr bewegt und innig"!p! d4 e2 | f4 B2 | e4 d2 | c6 | %47
w: Hol- de|Au- gen,|Gna- den-|lich-|
w: Gra- cious|lode- stars,|shine up-|on|
 B4 z2 | c4 B2 | A4 B2 | c4 A2 |!<(! (F4!<)! G2) |!>(! F4!>)! z2 | d4 e2 | f4 B2 | e4 d2 | c6 | %57
w: ter,|o be-|se- ligt|mei- ne|See- *|le,|lasst mich|ster- ben|und er-|wer-|
w: me,|fill my|soul with|in- spi-|ra- *|tion,|let me|dy- ing|ye in-|he-|
 B4 z2 | (d2 c2) B2 |!>(! A4 G2!>)! |!pp! (d2 c2) B2 |!>(! c6 | B4!>)!!ppp! z2 |] %63
w: ben|euch _ und|eu- ren|gan- * zen|Him-|mel.|
w: rit,|ye, * and|all the|joys _ of|Hea-|ven.|
V:2
!mf! z/!<(! (.[Dd]/z/.[Dcd]/z/.[DBd]/z/.[DAd]/)!<)! | %1
 z/!>(! (.[Dcd]/z/.[DBd]/z/.[DAd]/z/.[DBd]/)!>)! | %2
!p!!<(! z/ (.[B,DG]/z/.[B,DG]/z/.[A,D^FA]/z/.[A,DFA]/)!<)! | %3
!>(! z/ (.[B,DGB]/z/.[B,DGB]/z/.[A,D^FA]/z/!>)!.[A,DFA]/) | %4
 z/ (.[DGd]/z/.[DGd]/z/.[=EGA]/z/.[EGA]/) | z/ (.[=CF=c]/z/.[CFc]/z/.[DFG]/z/.[DFG]/) | %6
 z/!<(! (.[E,G,C]/z/.[E,G,C]/z/.[G,CD]/z/.[G,=B,D]/)!<)! | %7
 z/!>(! (.[G,CE]/z/.[G,CE]/z/.[G,CD]/z/.[G,=B,D]/)!>)! | %8
"_marcato il canto" z/ ([EG]/z/[EG]/z/[GB]/!<(!z/[GA]/!<)! | %9
 z/ [Ad]/z/[Ad]/z/[DGA]/!>(!z/[^CGA]/)!>)! |!mf! z/!<(! (.[Dd]/z/.[D=cd]/z/.[DBd]/z/.[DAd]/)!<)! | %11
 z/!>(! (.[Dcd]/z/.[DBd]/z/.[DAd]/z/.[DBd]/)!>)! | %12
!p! z/!<(! (.[B,DG]/z/.[B,DG]/z/.[A,D^FA]/z/.[A,DFA]/)!<)! | %13
!>(! z/ (.[D=FB]/z/.[DFB]/z/.[A,CFA]/z/.[A,CFA]/)!>)! | z2!<(! (D>_E!<)! |!>(! F2!>)! E2 | %16
 [B,D]2)[K:bass]!pp! [=E,B,]2 | [_E,=A,]4 | %18
!p! z/!<(! (.[D,F,B,]/z/.[D,F,B,]/z/.[F,A,C]/z/.[F,A,C]/)!<)! | %19
 z/!>(! .[F,B,D].[F,B,D]/ z/ [F,A,C]/-!>)![F,A,C] | %20
[K:treble] z/!<(! (.[DFB]/z/.[DFB]/z/.[FAc]/z/.[FAc]/)!<)! | %21
 z/!>(! (.[FAd][FAd]/) z/ [^C=EA]/-!>)! [CEA] | z!p! (B/[A=c]/ [FBd]>[GB_e] | [FBf]2 [EBe]2 | %24
 [DBd]2)!pp! ([C=EB]2 | [C_EA]4) |!mf! z/!<(! (.[B,DB]/z/.[B,DB]/z/.[B,DB]/!<)!z/.[B,DB]/) | %27
 z/ (.[B,DB]/z/.[B,DB]/!>(!z/.[B,DB]/z/.[B,DB]/)!>)! | %28
!f! z/!<(! (.[Dd]/z/.[Dcd]/z/!<)!.[DBd]/z/.[DAd]/) | %29
 z/!>(! (.[Dcd]/z/.[DBd]/z/.[DAd]/z/.[DBd]/)!>)! | %30
!p! z/!<(! (.[B,DG]/z/.[B,DG]/z/.[A,D^FA]/z/!<)!.[A,DFA]/) | %31
!>(! z/ (.[B,DGB]/z/.[B,DGB]/z/.[A,D^FA]/z/!>)!.[A,DFA]/) | %32
 z/ (.[DGd]/z/.[DGd]/z/.[=EGA]/z/.[EGA]/) | z/ (.[=CF=c]/z/.[CFc]/z/.[DFG]/z/.[DFG]/) | %34
 z/!<(! (.[G,CE]/z/.[G,CE]/z/.[G,_B,D]/z/.[G,B,D]/)!<)! | %35
 z/ (.[G,B,C]/z/.[G,B,E]/) z/ (.[^F,A,D].[F,A,C]/) | z2 z [G,G] |!>(! (([Dd]2!>)! [Cc]))!p! z | %38
 ([B,B]2 [A,A][G,G]) |!>(! (([Dd]2!>)! [Cc])) z |!p!!<(! ([B,B][Cc]/[B,B]/ [A,A]!<)![B,B] | %41
!>(! (([Cc]4!>)! | [CF]2))) z2 ||[M:3/4]!<(! ([Dd]4 [Ee]2!<)! |!>(! [Ff]6!>)! | [Ee]4 [Dd]2 | %46
 [CFc]6 | [B,FB]4) z2 |[K:bass]!<(! ([=E,-B,]6!<)! |!>(! A,4 B,2!>)! | [_E,A,C]6 | %51
[K:treble]!<(! D4!<)! [_D=E]2 |!>(! [CF]4)!>)! z2 |!<(! ([=D=d]4 [_E_e]2!<)! |!>(! [Ff]6!>)! | %55
 [Ee]4 [Dd]2 | [CAc]6 | [B,B]4) z2 |[K:bass]!>(! ([^F,B,-]6!>)! | [G,B,]6) |!pp! [=F,B,]6 | %61
!>(! [_G,B,-]4 [F,A,]2 | [F,B,]4!>)!!ppp! z2 |] %63
V:3
 (.D,.[C,D,].[B,,D,].[A,,D,]) | (.[C,D,].[B,,D,].[A,,D,].[B,,D,]) | (G,,B,,D,D,,) | (G,,B,,D,D,,) | %4
!ped! (.B,,.B,,)!ped-up! ^C,,2 |!ped! (._A,,.A,,)!ped-up! =B,,,2 | (C,,E,,G,,G,,,) | %7
 (C,,E,,G,,G,,,) | (E,,_B,,,=E,,A,,,) | (D,,F,,A,,A,,,) | (.[D,,D,].[=C,D,].[B,,D,].[A,,D,]) | %11
 (.[C,D,].[B,,D,].[A,,D,].[B,,D,]) | (G,,B,,D,D,,) |"^poco riten." (B,,,D,,F,,F,,,) | z2 F,>G, | %15
 _A,2 G,2 | F,2 x2 | F,,4 |"^a tempo" (B,,,D,,F,,F,,,) | (B,,,2 F,,,2) | (B,,D,F,F,,) | %21
"^poco riten." (D,,2 A,,,2) | z [D,B,]/[F,=C]/!<(! D>_E!<)! |!>(! B,4-!>)! | B,2 G,,2 | F,,4 | %26
 (B,,A,,G,,^F,, | A,,G,,^F,,G,,) | (.D,.[C,D,].[B,,D,].[A,,D,]) | %29
 (.[C,D,].[B,,D,].[A,,D,].[B,,D,]) | (G,,B,,D,D,,) | (G,,B,,D,D,,) | %32
!ped! (.B,,.B,,)!ped-up! ^C,,2 |!ped! (._A,,.=A,,)!ped-up! =B,,,2 | [C,,C,][C,,C,][D,,D,][D,,D,] | %35
 ([E,,E,][C,,C,] [D,,D,]2) |!p! !arpeggio![G,,D,B,]4 | (B,2 A,) z | (G,2 B,2) | (F2 E) z | [F,D]4 | %41
 E4- | [A,E]2 z2 ||[M:3/4] F,4 G,2 |!ped! [_A,B,]6 | B,6!ped-up! |!ped! (([F,,E,]6!ped-up! | %47
!ped! [B,,,D,]4)) z2!ped-up! | [G,,G,]6 | [C,,C,]6 | [F,,F,]6 | ([F,-B,]6 | [F,A,]4) z2 | F,4 G,2 | %54
 [_A,B,]6 | B,6 | [F,,E,]6 | [G,,D,]4 z2 | ([D,,B,,-]6 | [E,,B,,]6) | [F,,D,]6 | ([F,,,F,,-]6 | %62
 [B,,,F,,]4) z2 |] %63
V:4
 x4 | x4 | x4 | x4 | x4 | x4 | x4 | x4 | _B,G,D^C | FDA,=E | x4 | x4 | x4 | x4 | x4 | B,4 | %16
 x2[K:bass] x2 | x4 | x4 | x4 |[K:treble] x4 | x4 | x F x2 | x4 | x4 | x4 | x4 | x4 | x4 | x4 | %30
 x4 | x4 | x4 | x4 | x4 | x4 | x4 | x4 | x4 | x4 | x4 | x4 | x4 ||[M:3/4] x6 | x6 | x6 | x6 | x6 | %48
[K:bass] x6 | E,6 | x6 |[K:treble] x6 | x6 | x6 | x6 | x6 | x6 | x6 |[K:bass] x6 | x6 | x6 | (E,6 | %62
 D,4) x2 |] %63
V:5
 x4 | x4 | x4 | x4 | x4 | x4 | x4 | x4 | x4 | x4 | x4 | x4 | x4 | x4 | x2 B,,2 | D,2 E,2 | %16
 B,,2 G,,2 | x4 | x4 | x4 | x4 | x4 | x2 B,2 | [D,_A,]2 [E,G,]2 | [B,,F,]2 x2 | x4 | x4 | x4 | x4 | %29
 x4 | x4 | x4 | x4 | x4 | x4 | x4 | x4 | [C,E,]2- [C,E,] x | D,4 | [E,G,]2- [E,G,] x | x4 | F,4- | %42
 F,2 x2 ||[M:3/4] B,,6 | D,6 | [E,G,]4 [B,,F,]2 | x6 | x6 | x6 | x6 | x6 | ([B,,,F,,-]6 | %52
 [F,,,F,,]4) x2 | B,,6 | D,6 | [E,G,]4 [B,,F,]2 | x6 | x6 | x6 | x6 | x6 | x6 | x6 |] %63
V:6
 x4 | x4 | x4 | x4 | x4 | x4 | x4 | x4 | x4 | x4 | x4 | x4 | x4 | x4 | x4 | x4 | x4 | x4 | x4 | %19
 x4 | x4 | x4 | x4 | x4 | x4 | x4 | x4 | x4 | x4 | x4 | x4 | x4 | x4 | x4 | x4 | x4 | x4 | x4 | %38
 x4 | x4 | x4 | B,2 A,G, | x4 ||[M:3/4] x6 | x6 | x6 | x6 | x6 | x6 | x6 | x6 | x6 | x6 | x6 | x6 | %55
 x6 | x6 | x6 | x6 | x6 | x6 | x6 | x6 |] %63

